public/images/logo.svg

<?xml version="1.0" encoding="UTF-8" standalone="no"?>
<svg width="172px" height="36px" viewBox="0 0 172 36" version="1.1" xmlns="http://www.w3.org/2000/svg" xmlns:xlink="http://www.w3.org/1999/xlink" xmlns:sketch="http://www.bohemiancoding.com/sketch/ns">
    <!-- Generator: Sketch 3.3.2 (12043) - http://www.bohemiancoding.com/sketch -->
    <title>Untitled 5</title>
    <desc>Created with Sketch.</desc>
    <defs></defs>
    <g id="Page-1" stroke="none" stroke-width="1" fill="none" fill-rule="evenodd" sketch:type="MSPage">
        <g id="Logo" sketch:type="MSLayerGroup">
            <rect id="Rectangle-8" fill="#1A91F2" sketch:type="MSShapeGroup" x="36" y="0" width="136" height="36"></rect>
            <rect id="Rectangle-8-Copy" fill="#1E2837" sketch:type="MSShapeGroup" x="0" y="0" width="36" height="36"></rect>
            <path d="M18,7 C11.9248678,7 7,11.9248678 7,18 C7,24.0751322 11.9248678,29 18,29 L18,29 C24.0751322,29 29,24.0751322 29,18" id="Oval-3" stroke="#FFFFFF" stroke-width="3" sketch:type="MSShapeGroup"></path>
            <path d="M53.2890625,15.4296875 C52.3775996,15.4296875 51.6718775,15.772132 51.171875,16.4570312 C50.6718725,17.1419305 50.421875,18.096348 50.421875,19.3203125 C50.421875,21.8672002 51.3775946,23.140625 53.2890625,23.140625 C54.0911498,23.140625 55.0624943,22.9401062 56.203125,22.5390625 L56.203125,24.5703125 C55.2656203,24.9609395 54.2187558,25.15625 53.0625,25.15625 C51.4010334,25.15625 50.1302127,24.6523488 49.25,23.6445312 C48.3697873,22.6367137 47.9296875,21.1901136 47.9296875,19.3046875 C47.9296875,18.1171816 48.1458312,17.0768274 48.578125,16.1835938 C49.0104188,15.2903601 49.6315064,14.6054711 50.4414062,14.1289062 C51.2513061,13.6523414 52.2005154,13.4140625 53.2890625,13.4140625 C54.398443,13.4140625 55.5130152,13.682289 56.6328125,14.21875 L55.8515625,16.1875 C55.424477,15.984374 54.9947938,15.8072924 54.5625,15.65625 C54.1302062,15.5052076 53.7057312,15.4296875 53.2890625,15.4296875 L53.2890625,15.4296875 Z M60.34375,20.6171875 C60.34375,21.4817752 60.4856757,22.1354145 60.7695312,22.578125 C61.0533868,23.0208355 61.5156218,23.2421875 62.15625,23.2421875 C62.7916698,23.2421875 63.2486965,23.0221376 63.5273438,22.5820312 C63.805991,22.1419249 63.9453125,21.4869835 63.9453125,20.6171875 C63.9453125,19.7525998 63.8046889,19.1041688 63.5234375,18.671875 C63.2421861,18.2395812 62.7812532,18.0234375 62.140625,18.0234375 C61.5052052,18.0234375 61.0468764,18.2382791 60.765625,18.6679688 C60.4843736,19.0976584 60.34375,19.7473915 60.34375,20.6171875 L60.34375,20.6171875 Z M66.3828125,20.6171875 C66.3828125,22.0390696 66.0078163,23.1510377 65.2578125,23.953125 C64.5078087,24.7552123 63.4635484,25.15625 62.125,25.15625 C61.2864541,25.15625 60.5468782,24.9726581 59.90625,24.6054688 C59.2656218,24.2382794 58.7734392,23.7109409 58.4296875,23.0234375 C58.0859358,22.3359341 57.9140625,21.5338588 57.9140625,20.6171875 C57.9140625,19.190097 58.2864546,18.0807331 59.03125,17.2890625 C59.7760454,16.4973919 60.8229099,16.1015625 62.171875,16.1015625 C63.0104209,16.1015625 63.7499968,16.2838523 64.390625,16.6484375 C65.0312532,17.0130227 65.5234358,17.5364549 65.8671875,18.21875 C66.2109392,18.9010451 66.3828125,19.7005162 66.3828125,20.6171875 L66.3828125,20.6171875 Z M71.1171875,25.15625 C70.0911407,25.15625 69.2851592,24.7578165 68.6992188,23.9609375 C68.1132783,23.1640585 67.8203125,22.0599029 67.8203125,20.6484375 C67.8203125,19.2161387 68.1184866,18.1002644 68.7148438,17.3007812 C69.3112009,16.5012981 70.1328073,16.1015625 71.1796875,16.1015625 C72.2786513,16.1015625 73.1171846,16.5286416 73.6953125,17.3828125 L73.7734375,17.3828125 C73.6536452,16.7317676 73.59375,16.1510442 73.59375,15.640625 L73.59375,12.84375 L75.984375,12.84375 L75.984375,25 L74.15625,25 L73.6953125,23.8671875 L73.59375,23.8671875 C73.0520806,24.7265668 72.226568,25.15625 71.1171875,25.15625 L71.1171875,25.15625 Z M71.953125,23.2578125 C72.562503,23.2578125 73.0091132,23.0807309 73.2929688,22.7265625 C73.5768243,22.3723941 73.7317707,21.7708376 73.7578125,20.921875 L73.7578125,20.6640625 C73.7578125,19.7265578 73.6132827,19.0546895 73.3242188,18.6484375 C73.0351548,18.2421855 72.5651074,18.0390625 71.9140625,18.0390625 C71.3828098,18.0390625 70.9700536,18.2643207 70.6757812,18.7148438 C70.3815089,19.1653668 70.234375,19.8203082 70.234375,20.6796875 C70.234375,21.5390668 70.382811,22.1835916 70.6796875,22.6132812 C70.976564,23.0429709 71.4010389,23.2578125 71.953125,23.2578125 L71.953125,23.2578125 Z M78.375,14.0078125 C78.375,13.231767 78.8072873,12.84375 79.671875,12.84375 C80.5364627,12.84375 80.96875,13.231767 80.96875,14.0078125 C80.96875,14.377606 80.8606782,14.6653636 80.6445312,14.8710938 C80.4283843,15.0768239 80.1041688,15.1796875 79.671875,15.1796875 C78.8072873,15.1796875 78.375,14.7890664 78.375,14.0078125 L78.375,14.0078125 Z M80.859375,25 L78.4765625,25 L78.4765625,16.265625 L80.859375,16.265625 L80.859375,25 Z M89.4375,25 L82.5390625,25 L82.5390625,23.59375 L86.5859375,18.0859375 L82.78125,18.0859375 L82.78125,16.265625 L89.296875,16.265625 L89.296875,17.8125 L85.359375,23.1796875 L89.4375,23.1796875 L89.4375,25 Z M94.78125,17.796875 C94.2760391,17.796875 93.8802098,17.9570296 93.59375,18.2773438 C93.3072902,18.5976579 93.1432294,19.0520804 93.1015625,19.640625 L96.4453125,19.640625 C96.4348958,19.0520804 96.2812515,18.5976579 95.984375,18.2773438 C95.6874985,17.9570296 95.2864609,17.796875 94.78125,17.796875 L94.78125,17.796875 Z M95.1171875,25.15625 C93.7109305,25.15625 92.6119831,24.768233 91.8203125,23.9921875 C91.0286419,23.216142 90.6328125,22.1171946 90.6328125,20.6953125 C90.6328125,19.2317635 90.9986943,18.1002644 91.7304688,17.3007812 C92.4622432,16.5012981 93.4739519,16.1015625 94.765625,16.1015625 C96.0000062,16.1015625 96.9609341,16.4531215 97.6484375,17.15625 C98.3359409,17.8593785 98.6796875,18.830723 98.6796875,20.0703125 L98.6796875,21.2265625 L93.046875,21.2265625 C93.0729168,21.9036492 93.2734356,22.4322898 93.6484375,22.8125 C94.0234394,23.1927102 94.5494758,23.3828125 95.2265625,23.3828125 C95.7526068,23.3828125 96.2499977,23.3281255 96.71875,23.21875 C97.1875023,23.1093745 97.6770808,22.934897 98.1875,22.6953125 L98.1875,24.5390625 C97.7708313,24.7473969 97.3255232,24.9023432 96.8515625,25.0039062 C96.3776018,25.1054693 95.7994826,25.15625 95.1171875,25.15625 L95.1171875,25.15625 Z M105.492188,16.1015625 C105.815106,16.1015625 106.083332,16.1249998 106.296875,16.171875 L106.117188,18.40625 C105.924478,18.3541664 105.690106,18.328125 105.414062,18.328125 C104.653642,18.328125 104.0612,18.5234355 103.636719,18.9140625 C103.212237,19.3046895 103,19.851559 103,20.5546875 L103,25 L100.617188,25 L100.617188,16.265625 L102.421875,16.265625 L102.773438,17.734375 L102.890625,17.734375 C103.16146,17.2447892 103.527341,16.8502619 103.988281,16.5507812 C104.449221,16.2513006 104.950518,16.1015625 105.492188,16.1015625 L105.492188,16.1015625 Z M121.703125,19.1796875 C121.703125,21.0599052 121.167974,22.499995 120.097656,23.5 C119.027338,24.500005 117.481781,25 115.460938,25 L112.226562,25 L112.226562,13.578125 L115.8125,13.578125 C117.677093,13.578125 119.124995,14.0703076 120.15625,15.0546875 C121.187505,16.0390674 121.703125,17.4140537 121.703125,19.1796875 L121.703125,19.1796875 Z M119.1875,19.2421875 C119.1875,16.7890502 118.104177,15.5625 115.9375,15.5625 L114.648438,15.5625 L114.648438,23 L115.6875,23 C118.020845,23 119.1875,21.7474084 119.1875,19.2421875 L119.1875,19.2421875 Z M129.429688,25 L128.96875,23.8125 L128.90625,23.8125 C128.505206,24.3177109 128.09245,24.6679678 127.667969,24.8632812 C127.243487,25.0585947 126.690108,25.15625 126.007812,25.15625 C125.169267,25.15625 124.509117,24.9166691 124.027344,24.4375 C123.545571,23.9583309 123.304688,23.2760461 123.304688,22.390625 C123.304688,21.463537 123.628903,20.7799501 124.277344,20.3398438 C124.925784,19.8997374 125.903639,19.6562502 127.210938,19.609375 L128.726562,19.5625 L128.726562,19.1796875 C128.726562,18.2942664 128.273442,17.8515625 127.367188,17.8515625 C126.669267,17.8515625 125.848963,18.0624979 124.90625,18.484375 L124.117188,16.875 C125.122401,16.3489557 126.236973,16.0859375 127.460938,16.0859375 C128.632818,16.0859375 129.531247,16.3411433 130.15625,16.8515625 C130.781253,17.3619817 131.09375,18.1380156 131.09375,19.1796875 L131.09375,25 L129.429688,25 Z M128.726562,20.953125 L127.804688,20.984375 C127.111976,21.0052084 126.596356,21.1302072 126.257812,21.359375 C125.919269,21.5885428 125.75,21.9374977 125.75,22.40625 C125.75,23.0781284 126.135413,23.4140625 126.90625,23.4140625 C127.458336,23.4140625 127.899738,23.2552099 128.230469,22.9375 C128.5612,22.6197901 128.726562,22.1979193 128.726562,21.671875 L128.726562,20.953125 Z M137.226562,23.2578125 C137.643231,23.2578125 138.143226,23.1666676 138.726562,22.984375 L138.726562,24.7578125 C138.13281,25.0234388 137.40365,25.15625 136.539062,25.15625 C135.585933,25.15625 134.891929,24.915367 134.457031,24.4335938 C134.022133,23.9518205 133.804688,23.2291715 133.804688,22.265625 L133.804688,18.0546875 L132.664062,18.0546875 L132.664062,17.046875 L133.976562,16.25 L134.664062,14.40625 L136.1875,14.40625 L136.1875,16.265625 L138.632812,16.265625 L138.632812,18.0546875 L136.1875,18.0546875 L136.1875,22.265625 C136.1875,22.6041684 136.282551,22.8541659 136.472656,23.015625 C136.662761,23.1770841 136.914061,23.2578125 137.226562,23.2578125 L137.226562,23.2578125 Z M146.039062,25 L145.578125,23.8125 L145.515625,23.8125 C145.114581,24.3177109 144.701825,24.6679678 144.277344,24.8632812 C143.852862,25.0585947 143.299483,25.15625 142.617188,25.15625 C141.778642,25.15625 141.118492,24.9166691 140.636719,24.4375 C140.154946,23.9583309 139.914062,23.2760461 139.914062,22.390625 C139.914062,21.463537 140.238278,20.7799501 140.886719,20.3398438 C141.535159,19.8997374 142.513014,19.6562502 143.820312,19.609375 L145.335938,19.5625 L145.335938,19.1796875 C145.335938,18.2942664 144.882817,17.8515625 143.976562,17.8515625 C143.278642,17.8515625 142.458338,18.0624979 141.515625,18.484375 L140.726562,16.875 C141.731776,16.3489557 142.846348,16.0859375 144.070312,16.0859375 C145.242193,16.0859375 146.140622,16.3411433 146.765625,16.8515625 C147.390628,17.3619817 147.703125,18.1380156 147.703125,19.1796875 L147.703125,25 L146.039062,25 Z M145.335938,20.953125 L144.414062,20.984375 C143.721351,21.0052084 143.205731,21.1302072 142.867188,21.359375 C142.528644,21.5885428 142.359375,21.9374977 142.359375,22.40625 C142.359375,23.0781284 142.744788,23.4140625 143.515625,23.4140625 C144.067711,23.4140625 144.509113,23.2552099 144.839844,22.9375 C145.170575,22.6197901 145.335938,22.1979193 145.335938,21.671875 L145.335938,20.953125 Z" id="Codizer-Data" fill="#FFFFFF" sketch:type="MSShapeGroup"></path>
        </g>
    </g>
</svg>

<?xml version="1.0" encoding="UTF-8" standalone="no"?>
<svg xmlns:sketch="http://www.bohemiancoding.com/sketch/ns" xmlns="http://www.w3.org/2000/svg" height="36px" width="172px" version="1.1" xmlns:xlink="http://www.w3.org/1999/xlink" viewBox="0 0 172 36"><!-- Generator: Sketch 3.3.2 (12043) - http://www.bohemiancoding.com/sketch -->
 <title>Untitled 5</title>
 <desc>Created with Sketch.</desc>
 <g id="Page-1" fill-rule="evenodd" sketch:type="MSPage" fill="none">
  <g id="Logo" sketch:type="MSLayerGroup">
   <rect id="Rectangle-8" sketch:type="MSShapeGroup" height="36" width="136" y="0" x="36" fill="#1A91F2"/>
   <rect id="Rectangle-8-Copy" sketch:type="MSShapeGroup" height="36" width="36" y="0" x="0" fill="#1E2837"/>
   <path id="Oval-3" sketch:type="MSShapeGroup" stroke="#fff" stroke-width="3" d="m18 7c-6.075 0-11 4.925-11 11s4.925 11 11 11 11-4.925 11-11"/>
   <path id="Codizer-Data" sketch:type="MSShapeGroup" fill="#fff" d="m53.289 15.43c-0.911 0-1.617 0.342-2.117 1.027s-0.75 1.639-0.75 2.863c0 2.547 0.956 3.821 2.867 3.821 0.802 0 1.773-0.201 2.914-0.602v2.031c-0.937 0.391-1.984 0.586-3.141 0.586-1.661 0-2.932-0.504-3.812-1.511-0.88-1.008-1.32-2.455-1.32-4.34 0-1.188 0.216-2.228 0.648-3.121 0.432-0.894 1.054-1.579 1.863-2.055 0.81-0.477 1.76-0.715 2.848-0.715 1.109 0 2.224 0.268 3.344 0.805l-0.781 1.969c-0.428-0.204-0.857-0.381-1.29-0.532-0.432-0.151-0.856-0.226-1.273-0.226zm7.055 5.187c0 0.865 0.142 1.518 0.426 1.961 0.283 0.443 0.746 0.664 1.386 0.664 0.636 0 1.093-0.22 1.371-0.66 0.279-0.44 0.418-1.095 0.418-1.965 0-0.864-0.14-1.513-0.422-1.945-0.281-0.432-0.742-0.649-1.382-0.649-0.636 0-1.094 0.215-1.375 0.645-0.282 0.43-0.422 1.079-0.422 1.949zm6.039 0c0 1.422-0.375 2.534-1.125 3.336s-1.794 1.203-3.133 1.203c-0.839 0-1.578-0.183-2.219-0.551-0.64-0.367-1.133-0.894-1.476-1.582-0.344-0.687-0.516-1.489-0.516-2.406 0-1.427 0.372-2.536 1.117-3.328s1.792-1.187 3.141-1.187c0.838 0 1.578 0.182 2.219 0.546 0.64 0.365 1.132 0.888 1.476 1.571 0.344 0.682 0.516 1.482 0.516 2.398zm4.734 4.539c-1.026 0-1.832-0.398-2.418-1.195s-0.879-1.901-0.879-3.313c0-1.432 0.298-2.548 0.895-3.347 0.596-0.8 1.418-1.199 2.465-1.199 1.099 0 1.937 0.427 2.515 1.281h0.078c-0.119-0.651-0.179-1.232-0.179-1.742v-2.797h2.39v12.156h-1.828l-0.461-1.133h-0.101c-0.542 0.86-1.367 1.289-2.477 1.289zm0.836-1.898c0.61 0 1.056-0.177 1.34-0.531 0.284-0.355 0.439-0.956 0.465-1.805v-0.258c0-0.937-0.145-1.609-0.434-2.016-0.289-0.406-0.759-0.609-1.41-0.609-0.531 0-0.944 0.225-1.238 0.676-0.294 0.45-0.442 1.105-0.442 1.965 0 0.859 0.149 1.504 0.446 1.933 0.297 0.43 0.721 0.645 1.273 0.645zm6.422-9.25c0-0.776 0.432-1.164 1.297-1.164 0.864 0 1.297 0.388 1.297 1.164 0 0.37-0.108 0.657-0.324 0.863-0.217 0.206-0.541 0.309-0.973 0.309-0.865 0-1.297-0.391-1.297-1.172zm2.484 10.992h-2.382v-8.734h2.382v8.734zm8.579 0h-6.899v-1.406l4.047-5.508h-3.805v-1.82h6.516v1.546l-3.938 5.368h4.079v1.82zm5.343-7.203c-0.505 0-0.901 0.16-1.187 0.48-0.287 0.321-0.451 0.775-0.492 1.364h3.343c-0.01-0.589-0.164-1.043-0.461-1.364-0.297-0.32-0.698-0.48-1.203-0.48zm0.336 7.359c-1.406 0-2.505-0.388-3.297-1.164-0.791-0.776-1.187-1.875-1.187-3.297 0-1.463 0.366-2.595 1.097-3.394 0.732-0.8 1.744-1.199 3.036-1.199 1.234 0 2.195 0.351 2.882 1.054 0.688 0.703 1.032 1.675 1.032 2.914v1.157h-5.633c0.026 0.677 0.226 1.205 0.601 1.585 0.375 0.381 0.901 0.571 1.579 0.571 0.526 0 1.023-0.055 1.492-0.164 0.469-0.11 0.958-0.284 1.469-0.524v1.844c-0.417 0.208-0.862 0.363-1.336 0.465-0.474 0.101-1.053 0.152-1.735 0.152zm10.373-9.054c0.33 0 0.59 0.023 0.81 0.07l-0.18 2.234c-0.2-0.052-0.43-0.078-0.71-0.078-0.76 0-1.35 0.195-1.77 0.586-0.43 0.391-0.64 0.938-0.64 1.641v4.445h-2.38v-8.734h1.8l0.35 1.468h0.12c0.27-0.489 0.64-0.884 1.1-1.183 0.46-0.3 0.96-0.449 1.5-0.449zm16.21 3.078c0 1.88-0.53 3.32-1.6 4.32s-2.62 1.5-4.64 1.5h-3.23v-11.422h3.58c1.87 0 3.31 0.492 4.35 1.477 1.03 0.984 1.54 2.359 1.54 4.125zm-2.51 0.062c0-2.453-1.09-3.68-3.25-3.68h-1.29v7.438h1.04c2.33 0 3.5-1.253 3.5-3.758zm10.24 5.758l-0.46-1.188h-0.06c-0.4 0.506-0.82 0.856-1.24 1.051-0.43 0.196-0.98 0.293-1.66 0.293-0.84 0-1.5-0.239-1.98-0.718-0.48-0.48-0.73-1.162-0.73-2.047 0-0.927 0.33-1.611 0.98-2.051s1.62-0.684 2.93-0.731l1.52-0.047v-0.382c0-0.886-0.46-1.328-1.36-1.328-0.7 0-1.52 0.21-2.46 0.632l-0.79-1.609c1-0.526 2.12-0.789 3.34-0.789 1.17 0 2.07 0.255 2.7 0.766 0.62 0.51 0.93 1.286 0.93 2.328v5.82h-1.66zm-0.7-4.047l-0.93 0.031c-0.69 0.021-1.2 0.146-1.54 0.375-0.34 0.23-0.51 0.578-0.51 1.047 0 0.672 0.39 1.008 1.16 1.008 0.55 0 0.99-0.159 1.32-0.476 0.33-0.318 0.5-0.74 0.5-1.266v-0.719zm8.5 2.305c0.41 0 0.91-0.091 1.5-0.274v1.774c-0.6 0.265-1.33 0.398-2.19 0.398-0.95 0-1.65-0.241-2.08-0.722-0.44-0.482-0.66-1.205-0.66-2.168v-4.211h-1.14v-1.008l1.32-0.797 0.68-1.844h1.53v1.86h2.44v1.789h-2.44v4.211c0 0.338 0.09 0.588 0.28 0.75 0.19 0.161 0.44 0.242 0.76 0.242zm8.81 1.742l-0.46-1.188h-0.06c-0.41 0.506-0.82 0.856-1.24 1.051-0.43 0.196-0.98 0.293-1.66 0.293-0.84 0-1.5-0.239-1.98-0.718-0.49-0.48-0.73-1.162-0.73-2.047 0-0.927 0.33-1.611 0.98-2.051s1.62-0.684 2.93-0.731l1.52-0.047v-0.382c0-0.886-0.46-1.328-1.36-1.328-0.7 0-1.52 0.21-2.46 0.632l-0.79-1.609c1-0.526 2.12-0.789 3.34-0.789 1.17 0 2.07 0.255 2.7 0.766 0.62 0.51 0.93 1.286 0.93 2.328v5.82h-1.66zm-0.7-4.047l-0.93 0.031c-0.69 0.021-1.2 0.146-1.54 0.375-0.34 0.23-0.51 0.578-0.51 1.047 0 0.672 0.38 1.008 1.16 1.008 0.55 0 0.99-0.159 1.32-0.476 0.33-0.318 0.5-0.74 0.5-1.266v-0.719z"/>
  </g>
 </g>
</svg>
